X: 1
T: Vals efter August Nilsson
O: Munkedal, Bohusl\"an
N: (SvL. Bohusl\"an 68)
R: waltz
Z: 2021 John Chambers <jc:trillian.mit.edu>
F: http://www.folkwiki.se/pub/cache/Vals_efter_August_Nilsson_b24716.gif
M: 3/4
L: 1/8
K: G
c2 |\
Bc Ac BA | GB AG FA | DF Ad fa | g2fg ec | Bc Ac BA |
GB AG FA | DF Ad fa | g2 z2 :: g2 | fa ae c2 | (3(BAB) dB G2 |
DF AD FA | G2 Bd g2 | fa ae c2 | (3(BAB) dB G2 | DF AD FA | G2 z2 :|
